!!!COM:	Josquin des Prez
!!!CDT:	~1450-1521/08/27
!!!COA: Ockeghem
!!!OPR:	Missa Gaudeamus
!!!ONM:	4
!!!OTL:	Sanctus
!!!AGN:	Mass; Sanctus
!!!SCT:	NJE 4.2
!!!SCA:	New Josquin Edition 4.2
!!!voices: 4
!!!voices-OPR:	4
**kern	**text	**kern	**text	**kern	**text	**kern	**text
*staff4	*staff4	*staff3	*staff3	*staff2	*staff2	*staff1	*staff1
*Ivox	*	*Ivox	*	*Ivox	*	*Ivox	*
*I"Bassus	*	*I"Tenor	*	*I"Altus	*	*I"Superius	*
*I'B	*	*I'T	*	*I'A	*	*I'S	*
*>[A,B,C,D,E,F,C]	*>[A,B,C,D,E,F,C]	*>[A,B,C,D,E,F,C]	*>[A,B,C,D,E,F,C]	*>[A,B,C,D,E,F,C]	*>[A,B,C,D,E,F,C]	*>[A,B,C,D,E,F,C]	*>[A,B,C,D,E,F,C]
*>Sanctus[A]	*>Sanctus[A]	*>Sanctus[A]	*>Sanctus[A]	*>Sanctus[A]	*>Sanctus[A]	*>Sanctus[A]	*>Sanctus[A]
*>Pleni[B]	*>Pleni[B]	*>Pleni[B]	*>Pleni[B]	*>Pleni[B]	*>Pleni[B]	*>Pleni[B]	*>Pleni[B]
*>Osanna[C]	*>Osanna[C]	*>Osanna[C]	*>Osanna[C]	*>Osanna[C]	*>Osanna[C]	*>Osanna[C]	*>Osanna[C]
*>Benedictus[D]	*>Benedictus[D]	*>Benedictus[D]	*>Benedictus[D]	*>Benedictus[D]	*>Benedictus[D]	*>Benedictus[D]	*>Benedictus[D]
*>Qui_venit[E]	*>Qui_venit[E]	*>Qui_venit[E]	*>Qui_venit[E]	*>Qui_venit[E]	*>Qui_venit[E]	*>Qui_venit[E]	*>Qui_venit[E]
*>In_nomine[F]	*>In_nomine[F]	*>In_nomine[F]	*>In_nomine[F]	*>In_nomine[F]	*>In_nomine[F]	*>In_nomine[F]	*>In_nomine[F]
*>A	*>A	*>A	*>A	*>A	*>A	*>A	*>A
*clefF4	*	*clefGv2	*	*clefGv2	*	*clefG2	*
*k[]	*	*k[]	*	*k[]	*	*k[]	*
*M3/1	*	*M3/1	*	*M3/1	*	*M3/1	*
*met(O)	*	*met(O)	*	*met(O)	*	*met(O)	*
=1-	=1-	=1-	=1-	=1-	=1-	=1-	=1-
!!section:Sanctus
!!!OMD:Sanctus
0G	Sanc-	0.r	.	0.r	.	0.r	.
1A	.	.	.	.	.	.	.
=2	=2	=2	=2	=2	=2	=2	=2
1.B	.	0.r	.	0G	Sanc-	0.r	.
2G\	.	.	.	.	.	.	.
1c	.	.	.	2.A/	.	.	.
.	.	.	.	4B\	.	.	.
=3	=3	=3	=3	=3	=3	=3	=3
0C	.	0.r	.	4c\	.	0.r	.
.	.	.	.	4d\	.	.	.
.	.	.	.	1e	.	.	.
.	.	.	.	2c\	.	.	.
1D	.	.	.	1f	.	.	.
=4	=4	=4	=4	=4	=4	=4	=4
1.E	.	0G	Sanc-	2e\	.	0.r	.
.	.	.	.	2.g\	.	.	.
.	.	.	.	4f\	.	.	.
2C/	.	.	.	1e	.	.	.
1F	.	2.A/	.	.	.	.	.
.	.	.	.	2d\	.	.	.
.	.	4B\	.	.	.	.	.
!!LO:LB:g=fi
=5	=5	=5	=5	=5	=5	=5	=5
0E	-tus,	4c\	.	0e	-tus,	0g	Sanc-
.	.	4d\	.	.	.	.	.
.	.	1e	.	.	.	.	.
.	.	2c\	.	.	.	.	.
2.D\	Sanc-	1f	.	2.A/	Sanc-	1a	.
4C/	.	.	.	4B\	.	.	.
=6	=6	=6	=6	=6	=6	=6	=6
1AA	.	0e	-tus,	1c	.	0a	.
0A	.	.	.	2A/	.	.	.
.	.	.	.	2.c\	.	.	.
.	.	1A	Sanc-	.	.	[1ee	.
.	.	.	.	4d\	.	.	.
.	.	.	.	4e\	.	.	.
.	.	.	.	4f\	.	.	.
=7	=7	=7	=7	=7	=7	=7	=7
2.G\	.	2.B\	.	1g	.	1ee]	.
4F\	.	4c\	.	.	.	.	.
0D	.	1d	.	1a	.	0ff	.
.	.	1A	-tus,	2f\	.	.	.
.	.	.	.	[2a\	.	.	.
=8	=8	=8	=8	=8	=8	=8	=8
1A	-tus,	2r	.	4a\]	.	0.ee	-tus,
.	.	.	.	4g\	.	.	.
.	.	2.c\	San-	2e\	-tus,	.	.
1r	.	.	.	2r	.	.	.
.	.	4B\	.	.	.	.	.
.	.	4A/	.	2.c\	San-	.	.
.	.	4G/	.	.	.	.	.
2r	.	4A/	.	.	.	.	.
.	.	4G/	.	4B\	.	.	.
2AA/	San-	[2c\	.	4A/	.	.	.
.	.	.	.	4G/	.	.	.
=9	=9	=9	=9	=9	=9	=9	=9
2.C/	.	2c\]	.	4A/	.	0.r	.
.	.	.	.	4G/	.	.	.
.	.	2.e\	.	1c	.	.	.
4D\	.	.	.	.	.	.	.
2E\	.	.	.	.	.	.	.
.	.	4d\	.	.	.	.	.
2AA/	.	4c\	.	2.e\	.	.	.
.	.	4B\	.	.	.	.	.
1E	-ctus,	4c\	.	.	.	.	.
.	.	4B\	.	4d\	.	.	.
.	.	[2e\	.	4c\	.	.	.
.	.	.	.	4B\	.	.	.
!!LO:LB:g=fi
=10	=10	=10	=10	=10	=10	=10	=10
2.E\	San-	2e\]	.	4c\	.	0.r	.
.	.	.	.	4B\	.	.	.
.	.	2.g\	.	1e	.	.	.
4F\	.	.	.	.	.	.	.
2G\	.	.	.	.	.	.	.
.	.	4f\	.	.	.	.	.
2C/	.	4e\	.	2.g\	.	.	.
.	.	4d\	.	.	.	.	.
1G	-ctus,	4e\	.	.	.	.	.
.	.	4d\	.	4f\	.	.	.
.	.	[2g\	.	4e\	.	.	.
.	.	.	.	4d\	.	.	.
=11	=11	=11	=11	=11	=11	=11	=11
2.G\	San-	2g\]	.	4e\	.	0.r	.
.	.	.	.	4d\	.	.	.
.	.	2.G/	.	1g	.	.	.
4A\	.	.	.	.	.	.	.
2B\	.	.	.	.	.	.	.
.	.	4A/	.	.	.	.	.
2E\	.	2B\	.	2.G/	.	.	.
2B\	.	2G/	.	.	.	.	.
.	.	.	.	4A/	.	.	.
[2E\	.	[2g\	.	2B\	.	.	.
=12	=12	=12	=12	=12	=12	=12	=12
4E\]	.	4g\]	.	2G/	.	0.r	.
4D\	.	4f\	.	.	.	.	.
4E\	.	2e\	.	2.g\	.	.	.
4F\	.	.	.	.	.	.	.
2G\	.	4d\	.	.	.	.	.
.	.	4c\	.	4f\	.	.	.
2C/	.	1c	.	2e\	.	.	.
1G	.	.	.	1d	-ctus,	.	.
.	.	2B\	.	.	.	.	.
=13	=13	=13	=13	=13	=13	=13	=13
1C	-ctus,	0.c	-ctus,	2r	.	0g	Sanc-
.	.	.	.	1e	Do-	.	.
2r	.	.	.	.	.	.	.
2C/	Do-	.	.	2e\	-mi-	.	.
2.F\	.	.	.	2.f\	-nus	1a	.
4G\	.	.	.	4e\	.	.	.
=14	=14	=14	=14	=14	=14	=14	=14
2.A\	.	2r	.	2c\	.	0a	.
.	.	2F/	Do-	2f\	De-	.	.
4B\	.	.	.	.	.	.	.
1c	-mi-	2.A/	-mi-	2e\	.	.	.
.	.	.	.	2.a\	.	.	.
.	.	4B\	.	.	.	.	.
1C	-nus	[1c	-nus	.	.	[1ee	.
.	.	.	.	4g\	.	.	.
.	.	.	.	[2g\	.	.	.
=15	=15	=15	=15	=15	=15	=15	=15
!!LO:PB
2r	.	0c]	.	2g\]	.	1ee]	.
2C/	De-	.	.	2g\	-us	.	.
2.F\	.	.	.	[0a	Sa-	0ff	.
4G\	.	.	.	.	.	.	.
2.A\	.	2r	.	.	.	.	.
.	.	2F/	De-	.	.	.	.
4B\	.	.	.	.	.	.	.
=16	=16	=16	=16	=16	=16	=16	=16
1c	.	2.A/	.	1a]	.	0.ee	-tus,
.	.	4B\	.	.	.	.	.
1C	-us	0c	-us	0g	.	.	.
2r	.	.	.	.	.	.	.
2C/	Sa-	.	.	.	.	.	.
=17	=17	=17	=17	=17	=17	=17	=17
2.F\	-ba-	2r	.	2a\	.	0.r	.
.	.	2c\	Sa-	2A/	.	.	.
4E\	.	.	.	.	.	.	.
2D\	.	2d\	.	2B\	.	.	.
2C/	.	2.e\	-ba-	2c\	.	.	.
2D\	.	.	.	1A	-ba-	.	.
.	.	4f\	.	.	.	.	.
2F\	.	2d\	.	.	.	.	.
=18	=18	=18	=18	=18	=18	=18	=18
2E\	-oth,	2e\	.	1G	-oth,	0.r	.
2B\	Sa-	2d\	.	.	.	.	.
2.c\	-ba-	2e\	.	2r	.	.	.
.	.	1A	.	2e\	Sa-	.	.
4B\	.	.	.	.	.	.	.
2A\	.	.	.	2f\	.	.	.
2G\	.	2B\	.	2g\	.	.	.
=19	=19	=19	=19	=19	=19	=19	=19
2A\	.	2c\	.	2.e\	-ba-	0.r	.
2c\	.	2A/	.	.	.	.	.
.	.	.	.	4c\	.	.	.
2B\	.	0G	-oth,	2d\	.	.	.
2E\	-oth,	.	.	2e\	.	.	.
2r	.	.	.	2d\	.	.	.
2E\	Sa-	.	.	2e\	.	.	.
!!LO:LB:g=fi
=20	=20	=20	=20	=20	=20	=20	=20
2.F\	-ba-	2r	.	0.A	-oth,	0.r	.
.	.	2c\	Sa-	.	.	.	.
4E\	.	.	.	.	.	.	.
2D\	.	2d\	.	.	.	.	.
2C/	.	2.e\	-ba-	.	.	.	.
2D\	.	.	.	.	.	.	.
.	.	4f\	.	.	.	.	.
2F\	.	2d\	.	.	.	.	.
=21	=21	=21	=21	=21	=21	=21	=21
1E	-oth,	2e\	.	2r	.	0g	San-
.	.	2c\	.	2e\	Sa-	.	.
2r	.	1B	.	2d\	.	.	.
2E\	Sa-	.	.	2e\	.	.	.
2.F\	-ba-	2.A/	.	2c\	.	1a	.
.	.	.	.	[2f\	-ba-	.	.
4E\	.	4G/	.	.	.	.	.
=22	=22	=22	=22	=22	=22	=22	=22
2D\	.	4A/	.	2f\]	.	0a	.
.	.	4B\	.	.	.	.	.
2C/	.	2.c\	.	2e\	.	.	.
2D\	.	.	.	2d\	.	.	.
.	.	4B\	.	.	.	.	.
2F\	.	1A	.	2.c\	.	.	.
1E	.	.	.	.	.	[1ee	.
.	.	.	.	8B/L	.	.	.
.	.	.	.	8A/J	.	.	.
.	.	2G#i/	.	2B\	.	.	.
=23	=23	=23	=23	=23	=23	=23	=23
1C	.	[0.A/l	-oth.	4c\	.	1ee]	.
.	.	.	.	4B\	.	.	.
.	.	.	.	4A/	.	.	.
.	.	.	.	4G/	.	.	.
1.D	.	.	.	2F/	.	0ff	.
.	.	.	.	2D/	.	.	.
.	.	.	.	2.d\	.	.	.
2AA/	.	.	.	.	.	.	.
.	.	.	.	4c\	.	.	.
=24	=24	=24	=24	=24	=24	=24	=24
0.AA/l	-oth.	0.A]	.	0.c\l	-oth.	0.ee\l	-ctus,
!!LO:LB:i:g=z
=25||	=25||	=25||	=25||	=25||	=25||	=25||	=25||
*>B	*>B	*>B	*>B	*>B	*>B	*>B	*>B
*clefF4	*	*clefGv2	*	*clefGv2	*	*clefG2	*
*k[]	*	*k[]	*	*k[]	*	*k[]	*
*M3/1	*	*M3/1	*	*M3/1	*	*M3/1	*
*met(O)	*	*met(O)	*	*met(O)	*	*met(O)	*
!!!voices: 3
!!section:Pleni
!!!OMD:Pleni
1.A	Ple-	0.r	.	0.r	.	0.r	.
2B\	.	.	.	.	.	.	.
1c	-ni	.	.	.	.	.	.
=26	=26	=26	=26	=26	=26	=26	=26
1.F	sunt	0.r	.	1.A	Ple-	0.r	.
4E\	.	.	.	2B\	.	.	.
4D\	.	.	.	.	.	.	.
1E	.	.	.	1c	-ni	.	.
=27	=27	=27	=27	=27	=27	=27	=27
2D\	cae-	0.r	.	2.F/	sunt	0.r	.
1F	.	.	.	.	.	.	.
.	.	.	.	4G/	.	.	.
.	.	.	.	4A/	.	.	.
.	.	.	.	4B\	.	.	.
4E\	.	.	.	2.c\	.	.	.
4D\	.	.	.	.	.	.	.
1E	.	.	.	.	.	.	.
.	.	.	.	4d\	.	.	.
.	.	.	.	2e\	.	.	.
=28	=28	=28	=28	=28	=28	=28	=28
1.D	.	0.r	.	1.f	cae-	1.a	Ple-
2BB/	.	.	.	4e\	.	2b\	.
.	.	.	.	4d\	.	.	.
1AA	-li	.	.	1e	.	1cc	-ni
!!LO:LB:g=fi
=29	=29	=29	=29	=29	=29	=29	=29
0.r	.	0.r	.	2d\	.	2.f/	sunt
.	.	.	.	1f	.	.	.
.	.	.	.	.	.	4g/	.
.	.	.	.	.	.	4a/	.
.	.	.	.	.	.	4b\	.
.	.	.	.	4e\	.	2.cc\	.
.	.	.	.	4d\	.	.	.
.	.	.	.	1e	-li	.	.
.	.	.	.	.	.	4dd\	.
.	.	.	.	.	.	2ee\	.
=30	=30	=30	=30	=30	=30	=30	=30
0.r	.	0.r	.	2.d\	cae-	2.ff\	cae-
.	.	.	.	4e\	.	4ee\	.
.	.	.	.	4f\	.	2dd\	.
.	.	.	.	4g\	.	.	.
.	.	.	.	2a\	.	2cc\	.
.	.	.	.	2g\	.	2b\	.
.	.	.	.	2a\	.	2a/	.
=31	=31	=31	=31	=31	=31	=31	=31
1r	.	0.r	.	2.A/	.	2.cc\	.
.	.	.	.	4B\	.	4b\	.
1r	.	.	.	4c\	.	2a/	.
.	.	.	.	4d\	.	.	.
.	.	.	.	1e	.	2g/	.
1D	et	.	.	.	.	1f	.
.	.	.	.	2d\	.	.	.
=32	=32	=32	=32	=32	=32	=32	=32
1A	ter-	0.r	.	1e	-li	0e	-li
2G\	.	.	.	1r	.	.	.
2E\	.	.	.	.	.	.	.
1F	.	.	.	1A	et	1r	.
=33	=33	=33	=33	=33	=33	=33	=33
1E	-ra	0.r	.	1e	ter-	0.r	.
2r	.	.	.	2d\	.	.	.
2D\	et	.	.	2B\	.	.	.
1A	ter-	.	.	1c	.	.	.
=34	=34	=34	=34	=34	=34	=34	=34
!!LO:PB
2G\	.	0.r	.	1B	-ra	0.r	.
2E\	.	.	.	.	.	.	.
2.F\	.	.	.	2r	.	.	.
.	.	.	.	2A/	et	.	.
4E\	.	.	.	.	.	.	.
2C/	-ra	.	.	1e	ter-	.	.
[2G\	ter-	.	.	.	.	.	.
=35	=35	=35	=35	=35	=35	=35	=35
4G\]	.	0.r	.	2d\	.	1r	.
4F\	.	.	.	.	.	.	.
2G\	.	.	.	2B\	.	.	.
2A\	.	.	.	2.c\	.	1r	.
2.c\	.	.	.	.	.	.	.
.	.	.	.	4B\	.	.	.
.	.	.	.	1G	-ra	1d	et
8B\L	.	.	.	.	.	.	.
8A\J	.	.	.	.	.	.	.
2B\	.	.	.	.	.	.	.
=36	=36	=36	=36	=36	=36	=36	=36
2c\	.	0.r	.	2F/	et	1a	ter-
2F\	.	.	.	2.c\	ter-	.	.
2G\	.	.	.	.	.	2g/	.
.	.	.	.	4B\	.	.	.
2A\	.	.	.	2c\	.	2e/	.
1D	-ra	.	.	2d\	.	1f	.
.	.	.	.	[2A/	.	.	.
=37	=37	=37	=37	=37	=37	=37	=37
0.r	.	0.r	.	2A/]	.	1e	-ra
.	.	.	.	2c\	.	.	.
.	.	.	.	2d\	.	2r	.
.	.	.	.	2.f\	.	2d/	et
.	.	.	.	.	.	1a	ter-
.	.	.	.	4e\	.	.	.
.	.	.	.	[2c\	.	.	.
!!LO:LB:g=fi
=38	=38	=38	=38	=38	=38	=38	=38
0.r	.	0.r	.	4c\]	.	2g/	.
.	.	.	.	4B\	.	.	.
.	.	.	.	2c\	.	2e/	.
.	.	.	.	2d\	.	2.f/	.
.	.	.	.	2f\	.	.	.
.	.	.	.	.	.	4e/	.
.	.	.	.	[1e	-ra	2c/	-ra
.	.	.	.	.	.	[2g/	ter-
=39	=39	=39	=39	=39	=39	=39	=39
2r	.	0.r	.	1e]	.	4g/]	.
.	.	.	.	.	.	4f/	.
2C/	et	.	.	.	.	2g/	.
2.F\	ter-	.	.	1c	et	2a/	.
.	.	.	.	.	.	2.cc\	.
4E\	.	.	.	.	.	.	.
2F\	.	.	.	1d	ter-	.	.
.	.	.	.	.	.	8b/L	.
.	.	.	.	.	.	8a/J	.
2G\	.	.	.	.	.	2b\	.
=40	=40	=40	=40	=40	=40	=40	=40
2A\	.	0.r	.	2c\	.	2cc\	.
1B-	.	.	.	1d	.	2f/	.
.	.	.	.	.	.	2g/	.
2A\	.	.	.	2c\	.	2a/	.
2B-i\	-ra	.	.	2d\	.	1d	-ra
[2d\	glo-	.	.	2B-i\	.	.	.
=41	=41	=41	=41	=41	=41	=41	=41
4d\]	.	0.r	.	1A	-ra	2.e/	glo-
8c\L	.	.	.	.	.	.	.
8B\J	.	.	.	.	.	.	.
4c\	.	.	.	.	.	.	.
4d\	-ri-	.	.	.	.	4d/	.
2G\	-a	.	.	1r	.	4e/	.
.	.	.	.	.	.	2g/	.
2.A\	glo-	.	.	.	.	.	.
.	.	.	.	.	.	8f/L	.
.	.	.	.	.	.	8e/J	.
.	.	.	.	1r	.	4f/	.
8G\L	.	.	.	.	.	4g/	.
8F\J	.	.	.	.	.	.	.
4G\	.	.	.	.	.	2e/	-ri-
4A\	-ri-	.	.	.	.	.	.
!!LO:LB:g=fi
=42	=42	=42	=42	=42	=42	=42	=42
2D\	-a	0.r	.	2r	.	2a/	-a
2.E\	glo-	.	.	2G/	glo-	4r	.
.	.	.	.	.	.	2g/	glo-
.	.	.	.	2.A/	.	.	.
8D/L	.	.	.	.	.	8f/L	.
8C/J	.	.	.	.	.	8e/J	.
4D\	.	.	.	.	.	4f/	.
4E\	-ri-	.	.	4G/	.	4g/	.
4AA/	-a	.	.	2A/	.	2c/	.
2A\	glo-	.	.	.	.	.	.
.	.	.	.	2B\	-ri-	2d/	-ri-
4G\	.	.	.	.	.	.	.
=43	=43	=43	=43	=43	=43	=43	=43
4A\	.	0.r	.	2c\	-a	2c/	-a
2c\	.	.	.	.	.	.	.
.	.	.	.	2d\	glo-	2.g/	glo-
4B\	.	.	.	.	.	.	.
4c\	.	.	.	2.e\	.	.	.
4A\	-ri-	.	.	.	.	4a/	.
2G\	-a	.	.	.	.	2b\	.
.	.	.	.	4d\	.	.	.
2.c\	tu-	.	.	2e\	.	2cc\	.
.	.	.	.	2f\	-ri-	2a/	.
4d\	.	.	.	.	.	.	.
=44	=44	=44	=44	=44	=44	=44	=44
2e\	.	0.r	.	2g\	-a	2g/	-ri-
2A\	-a,	.	.	2.a\	glo-	2cc\	-a
2.B-\	tu-	.	.	.	.	4r	.
.	.	.	.	8g\L	.	2dd\	tu-
.	.	.	.	8f\J	.	.	.
.	.	.	.	4g\	.	.	.
4A\	.	.	.	4a\	-ri-	4cc\	.
2B-i\	.	.	.	2d\	-a	2dd\	.
2G\	-a,	.	.	[2g\	tu-	2b\	-a,
=45	=45	=45	=45	=45	=45	=45	=45
2.A\	tu-	0.r	.	4g\]	.	4r	.
.	.	.	.	8f\L	.	2cc\	tu-
.	.	.	.	8e\J	.	.	.
.	.	.	.	4f\	.	.	.
4G\	.	.	.	4g\	.	4b\	.
2A\	.	.	.	2c\	-a,	4cc\	.
.	.	.	.	.	.	4a/	.
2E\	-a,	.	.	4r	.	2g/	-a,
.	.	.	.	2e\	tu-	.	.
2.F\	tu-	.	.	.	.	4r	.
.	.	.	.	8d\L	.	2a/	tu-
.	.	.	.	8c\J	.	.	.
.	.	.	.	4d\	.	.	.
4E\	.	.	.	4e\	.	4g/	.
!!LO:LB:g=fi
=46	=46	=46	=46	=46	=46	=46	=46
2F\	.	0.r	.	2A/	-a,	2a/	.
2D\	-a,	.	.	4r	.	2f/	-a,
.	.	.	.	2d\	tu-	.	.
2.E\	glo-	.	.	.	.	4r	.
.	.	.	.	8c\L	.	2g/	tu-
.	.	.	.	8B\J	.	.	.
.	.	.	.	4c\	.	.	.
4D\	.	.	.	4d\	.	4f/	.
4E\	.	.	.	2G/	.	4g/	.
2G\	.	.	.	.	.	4e/	.
.	.	.	.	2A/	.	2d/	-a,
4F\	.	.	.	.	.	.	.
=47	=47	=47	=47	=47	=47	=47	=47
4G\	.	0.r	.	2G/	-a,	4r	.
4E\	-ri-	.	.	.	.	4g/	glo-
2D\	-a	.	.	2d\	glo-	4a/	.
.	.	.	.	.	.	4b\	.
2r	.	.	.	4c\	.	4cc\	.
.	.	.	.	2d\	.	4a/	-ri-
4r	.	.	.	.	.	2b\	-a
4G\	glo-	.	.	4B\	.	.	.
4F\	.	.	.	4c\	.	2r	.
4D\	.	.	.	4d\	-ri-	.	.
2E\	-ri-	.	.	2G/	-a	4r	.
.	.	.	.	.	.	4g/	glo-
=48	=48	=48	=48	=48	=48	=48	=48
2D\	-a	0.r	.	2d\	tu-	4a/	.
.	.	.	.	.	.	4b\	.
4r	.	.	.	4c\	.	4cc\	.
4F\	tu-	.	.	2d\	.	4a/	.
4G\	.	.	.	.	.	4b\	.
4A\	.	.	.	8c\L	.	4cc\	.
.	.	.	.	8B\J	.	.	.
4F\	.	.	.	4c\	.	4a/	-ri-
4D\	.	.	.	4d\	.	2b\	-a
2E\	.	.	.	2G/	.	.	.
.	.	.	.	.	.	2g/	tu-
2D\	.	.	.	2A/	.	.	.
.	.	.	.	.	.	4f#i/	.
=49	=49	=49	=49	=49	=49	=49	=49
0.G\l	-a.	0.r	.	0.G/l	-a.	0.g/l	-a.
!!LO:LB:i:g=z
=50||	=50||	=50||	=50||	=50||	=50||	=50||	=50||
*>C	*>C	*>C	*>C	*>C	*>C	*>C	*>C
*clefF4	*	*clefGv2	*	*clefGv2	*	*clefG2	*
*k[]	*	*k[]	*	*k[]	*	*k[]	*
*M3/1	*	*M3/1	*	*M3/1	*	*M3/1	*
*met(C|3)	*	*met(C|3)	*	*met(C|3)	*	*met(C|3)	*
!!!voices: 4
!!!OMD:Osanna
!!section:Osanna
0.r	.	0G	O-	0.r	.	0.r	.
.	.	1A	.	.	.	.	.
=51	=51	=51	=51	=51	=51	=51	=51
0.r	.	1.A	-san-	0.r	.	0.r	.
.	.	2B\	.	.	.	.	.
.	.	2c\	.	.	.	.	.
.	.	2d\	.	.	.	.	.
=52	=52	=52	=52	=52	=52	=52	=52
0.r	.	0e	.	0.r	.	0g	O-
.	.	[1f	.	.	.	1a	.
=53	=53	=53	=53	=53	=53	=53	=53
0.r	.	0.f]	.	0.r	.	1.a	-san-
.	.	.	.	.	.	2b\	.
.	.	.	.	.	.	2cc\	.
.	.	.	.	.	.	2dd\	.
=54	=54	=54	=54	=54	=54	=54	=54
0C	O-	0e	-na,	0.r	.	0ee	.
1D	.	1d	O-	.	.	[1ff	.
=55	=55	=55	=55	=55	=55	=55	=55
1.D	-san-	1.f	-san-	0.r	.	0.ff]	.
2E\	.	2e\	.	.	.	.	.
2F\	.	1d	.	.	.	.	.
2G\	.	.	.	.	.	.	.
!!LO:LB:g=fi
=56	=56	=56	=56	=56	=56	=56	=56
0A	.	1c	.	0c	O-	0ee	-na,
.	.	1A	.	.	.	.	.
[1B-	.	[1f	.	1d	.	1dd	O-
=57	=57	=57	=57	=57	=57	=57	=57
0.B-]	.	1f]	.	1.d	-san-	1.ff	-san-
.	.	0d	.	.	.	.	.
.	.	.	.	2e\	.	2ee\	.
.	.	.	.	2f\	.	1dd	.
.	.	.	.	2g\	.	.	.
=58	=58	=58	=58	=58	=58	=58	=58
1A	-na,	1e	-na,	0a	.	1cc	-na,
1F	O-	1f	.	.	.	0dd	.
[1G	.	1d	.	[1b-	.	.	.
=59	=59	=59	=59	=59	=59	=59	=59
2G\]	.	1.g	O-	0.b-]	.	1g	O-
2A\	.	.	.	.	.	.	.
1B-i	.	.	.	.	.	0dd	.
.	.	2f\	.	.	.	.	.
1G	.	1g	.	.	.	.	.
=60	=60	=60	=60	=60	=60	=60	=60
1A	-san-	1e	-san-	0.a	-na,	1cc	-san-
1D	.	1f	.	.	.	1dd	.
1A	.	1e	.	.	.	1ee	.
=61	=61	=61	=61	=61	=61	=61	=61
1F	.	1f	.	0.r	.	1a	.
1G	.	1d	.	.	.	1b	.
1A	.	[1f	.	.	.	1cc	.
=62	=62	=62	=62	=62	=62	=62	=62
1D	.	1f]	.	0.r	.	1dd	.
1E	.	1.e	.	.	.	1g	.
1F	.	.	.	.	.	1a	.
.	.	2d\	.	.	.	.	.
!!LO:LB:g=fi
=63	=63	=63	=63	=63	=63	=63	=63
1G	.	1d	.	0G	O-	1b	.
1C	.	1e	.	.	.	1.cc	.
[1F	-na,	1c	.	1A	.	.	.
.	.	.	.	.	.	2b\	.
=64	=64	=64	=64	=64	=64	=64	=64
0.F]	.	1d	-na,	1.A	-san-	2a/	.
.	.	.	.	.	.	2g/	.
.	.	1r	.	.	.	0a	.
.	.	.	.	2B\	.	.	.
.	.	1A	O-	2c\	.	.	.
.	.	.	.	2d\	.	.	.
=65	=65	=65	=65	=65	=65	=65	=65
1E	O-	1B	-san-	0e	.	1g	-na,
1C	.	1c	.	.	.	0a	O-
[1D	.	1A	.	[1f	.	.	.
=66	=66	=66	=66	=66	=66	=66	=66
2D\]	.	0d	.	0.f]	.	1d	.
2E\	.	.	.	.	.	.	.
1.F	-san-	.	.	.	.	1.a	-san-
.	.	1c	-na,	.	.	.	.
2G\	.	.	.	.	.	2b\	.
=67	=67	=67	=67	=67	=67	=67	=67
1A	.	0.r	.	0.e	-na,	1.cc	.
1.c	.	.	.	.	.	.	.
.	.	.	.	.	.	2b\	.
.	.	.	.	.	.	1g	-na,
2B\	.	.	.	.	.	.	.
=68	=68	=68	=68	=68	=68	=68	=68
1G	-na,	0.r	.	0.r	.	1.dd	O-
1.d	O-	.	.	.	.	.	.
.	.	.	.	.	.	2cc\	.
.	.	.	.	.	.	2b\	.
2c\	.	.	.	.	.	2a/	.
!!LO:LB:g=fi
=69	=69	=69	=69	=69	=69	=69	=69
1A	.	1r	.	0.r	.	0a	-san-
0B-i	-san-	1r	.	.	.	.	.
.	.	1d	O-	.	.	1g	.
=70	=70	=70	=70	=70	=70	=70	=70
0A	-na,	1e	.	0c	O-	1a	.
.	.	1f	.	.	.	1cc	.
1G	O-	1g	.	1d	.	1b	.
=71	=71	=71	=71	=71	=71	=71	=71
1F	.	0a	-san-	1.d	-san-	1a	.
0B-i	-san-	.	.	.	.	0dd	.
.	.	.	.	2e\	.	.	.
.	.	1d	.	2f\	.	.	.
.	.	.	.	2g\	.	.	.
=72	=72	=72	=72	=72	=72	=72	=72
1A	.	1e	.	1a	.	1cc	-na,
1G	.	1.g	.	1.b-	.	1r	.
[1c	.	.	.	.	.	1r	.
.	.	2f\	.	2a\	.	.	.
=73	=73	=73	=73	=73	=73	=73	=73
1c]	.	0e	.	0a	.	0.r	.
0B-i	.	.	.	.	.	.	.
.	.	1d	.	1g	.	.	.
=74	=74	=74	=74	=74	=74	=74	=74
0A	-na,	1e	-na,	0.a	-na,	1.cc	in
.	.	1c	in	.	.	.	.
.	.	.	.	.	.	2b\	.
1D	in	1d	.	.	.	1a	.
=75	=75	=75	=75	=75	=75	=75	=75
!!LO:PB
1E	ex-	1B	ex-	0.r	.	1g	ex-
1C	-cel-	1.c	-cel-	.	.	1.a	-cel-
1D	.	.	.	.	.	.	.
.	.	2B\	.	.	.	2g/	.
=76	=76	=76	=76	=76	=76	=76	=76
1E	.	1B	.	0.r	.	0g	.
1C	.	0A	-sis.	.	.	.	.
1D	.	.	.	.	.	1f	.
=77	=77	=77	=77	=77	=77	=77	=77
0E	.	1r	.	0G	in	1.g	.
.	.	1G	in	.	.	.	.
.	.	.	.	.	.	2e/	.
[1AA	.	[1c	ex-	1A	ex-	1e	-sis.
=78	=78	=78	=78	=78	=78	=78	=78
1AA]	.	1c]	.	1.A	-cel-	1.cc	in
0F	.	0A	-cel-	.	.	.	.
.	.	.	.	2B\	.	2b\	.
.	.	.	.	2c\	.	1a	.
.	.	.	.	2d\	.	.	.
=79	=79	=79	=79	=79	=79	=79	=79
1E	.	1B	.	1e	.	1g	ex-
1D	.	0d	.	1.f	.	1f	.
[1G	.	.	.	.	.	[1b-i	-cel-
.	.	.	.	2e\	.	.	.
=80	=80	=80	=80	=80	=80	=80	=80
1G]	.	1G	.	0e	.	1b-]	.
1.F	.	1.A	.	.	.	0a	.
.	.	.	.	1d	.	.	.
2E\	.	2B\	.	.	.	.	.
!!LO:LB:g=fi
=81	=81	=81	=81	=81	=81	=81	=81
1.C	-sis.	1c	-sis.	[0.e\l	-sis.	1g	-sis.
.	.	1G	in	.	.	2e/	ex-
2D\	.	.	.	.	.	2f/	.
2E\	.	1c	.	.	.	2g/	.
2F\	.	.	.	.	.	2a/	.
=82	=82	=82	=82	=82	=82	=82	=82
1G	.	1B	ex-	0.e_	.	1b	.
1A	in	1.e	-cel-	.	.	1.cc	-cel-
[1C	ex-	.	.	.	.	.	.
.	.	2d\	.	.	.	2b\	.
=83	=83	=83	=83	=83	=83	=83	=83
2C/]	.	1c	.	0.e_	.	1a	.
2D\	.	.	.	.	.	.	.
1.E	.	1B	.	.	.	1.g	.
.	.	[1g	.	.	.	.	.
2F\	.	.	.	.	.	2a/	.
=84	=84	=84	=84	=84	=84	=84	=84
1G	-cel-	2g\]	.	0.e_	.	1b	.
.	.	2f\	.	.	.	.	.
1A	.	1.e	.	.	.	1.cc	.
[1C	.	.	.	.	.	.	.
.	.	2d\	.	.	.	2b\	.
=85	=85	=85	=85	=85	=85	=85	=85
2C/]	.	1c	.	0.e_	.	0a	.
2D\	.	.	.	.	.	.	.
0E	.	0B	.	.	.	.	.
.	.	.	.	.	.	1g#i	.
=86	=86	=86	=86	=86	=86	=86	=86
0.AA/l	-sis.	0.A/l	-sis.	0.e]	.	0.a/l	-sis.
!!LO:TX:rj:Y=12:i:t=fine
!!LO:LB:i:g=z
=87||	=87||	=87||	=87||	=87||	=87||	=87||	=87||
*>D	*>D	*>D	*>D	*>D	*>D	*>D	*>D
*clefF4	*	*clefGv2	*	*clefGv2	*	*clefG2	*
*k[]	*	*k[]	*	*k[]	*	*k[]	*
*M2/1	*	*M2/1	*	*M2/1	*	*M2/1	*
*met(C|)	*	*met(C|)	*	*met(C|)	*	*met(C|)	*
!!!voices: 2
!!!OMD:Benedictus
!!section:Benedictus
[0E	Be-	0B	Be-	0r	.	0r	.
=88	=88	=88	=88	=88	=88	=88	=88
0E]	.	1c	.	0r	.	0r	.
.	.	1B	-ne-	.	.	.	.
=89	=89	=89	=89	=89	=89	=89	=89
0AA	.	1.c	-dic-	0r	.	0r	.
.	.	4B\	.	.	.	.	.
.	.	4A/	.	.	.	.	.
=90	=90	=90	=90	=90	=90	=90	=90
[0E	-ne-	1c	.	0r	.	0r	.
.	.	[1B	-tus,	.	.	.	.
=91	=91	=91	=91	=91	=91	=91	=91
0E]	.	1B]	.	0r	.	0r	.
.	.	[1c	be-	.	.	.	.
=92	=92	=92	=92	=92	=92	=92	=92
1F	-dic-	2c\]	.	0r	.	0r	.
.	.	4B\	.	.	.	.	.
.	.	4A/	.	.	.	.	.
1E	.	1c	-ne-	.	.	.	.
!!LO:LB:g=fi
=93	=93	=93	=93	=93	=93	=93	=93
0F	.	2d\	-dic-	0r	.	0r	.
.	.	1c	.	.	.	.	.
.	.	4B\	.	.	.	.	.
.	.	4A/	.	.	.	.	.
=94	=94	=94	=94	=94	=94	=94	=94
1.E	-tus,	1.G	-tus	0r	.	0r	.
2F\	.	2A/	.	.	.	.	.
=95	=95	=95	=95	=95	=95	=95	=95
1G	.	1B	.	0r	.	0r	.
1A	be-	[1c	be-	.	.	.	.
=96	=96	=96	=96	=96	=96	=96	=96
1AA	-ne-	2c\]	.	0r	.	0r	.
.	.	4B\	.	.	.	.	.
.	.	4A/	.	.	.	.	.
[1E	-dic-	2c\	.	.	.	.	.
.	.	2B\	-ne-	.	.	.	.
=97	=97	=97	=97	=97	=97	=97	=97
2E\]	.	1.e	-dic-	0r	.	0r	.
2C/	.	.	.	.	.	.	.
1G	.	.	.	.	.	.	.
.	.	2d\	.	.	.	.	.
=98	=98	=98	=98	=98	=98	=98	=98
1A	.	1c	.	0r	.	0r	.
1G	.	1B	-tus	.	.	.	.
!!LO:LB:g=fi
=99	=99	=99	=99	=99	=99	=99	=99
1A	.	1.e	be-	0r	.	0r	.
1E	-tus	.	.	.	.	.	.
.	.	2d\	.	.	.	.	.
=100	=100	=100	=100	=100	=100	=100	=100
2r	.	2c\	.	0r	.	0r	.
2E\	be-	2B\	.	.	.	.	.
2F\	.	2A/	.	.	.	.	.
2E\	-ne-	2G/	-ne-	.	.	.	.
=101	=101	=101	=101	=101	=101	=101	=101
2F\	-dic-	1d	-dic-	0r	.	0r	.
2D\	.	.	.	.	.	.	.
2F\	.	2.c\	.	.	.	.	.
[2E\	.	.	.	.	.	.	.
.	.	4B\	.	.	.	.	.
=102	=102	=102	=102	=102	=102	=102	=102
2E\]	.	2B\	.	0r	.	0r	.
2C/	.	1A	.	.	.	.	.
1BB	.	.	.	.	.	.	.
.	.	2G#i/	.	.	.	.	.
=103	=103	=103	=103	=103	=103	=103	=103
0AA/l	-tus	0A/l	-tus	0r	.	0r	.
!!LO:LB:i:g=z
=104||	=104||	=104||	=104||	=104||	=104||	=104||	=104||
*>E	*>E	*>E	*>E	*>E	*>E	*>E	*>E
*clefF4	*	*clefGv2	*	*clefGv2	*	*clefG2	*
*k[]	*	*k[]	*	*k[]	*	*k[]	*
*M2/1	*	*M2/1	*	*M2/1	*	*M2/1	*
*met(C|)	*	*met(C|)	*	*met(C|)	*	*met(C|)	*
!!!voices: 2
!!!OMD:Qui venit
!!section:Qui_venit
0r	.	0r	.	0r	.	1.e	Qui
.	.	.	.	.	.	4f/	.
.	.	.	.	.	.	4g/	.
=105	=105	=105	=105	=105	=105	=105	=105
0r	.	0r	.	0r	.	2a/	ve-
.	.	.	.	.	.	1g	.
.	.	.	.	.	.	4f/	.
.	.	.	.	.	.	4g/	.
=106	=106	=106	=106	=106	=106	=106	=106
0r	.	0r	.	1.A	Qui	0a	-nit,
.	.	.	.	4B\	.	.	.
.	.	.	.	4c\	.	.	.
=107	=107	=107	=107	=107	=107	=107	=107
0r	.	0r	.	2d\	ve-	1r	.
.	.	.	.	1c	.	.	.
.	.	.	.	.	.	[1a	qui
.	.	.	.	4B\	.	.	.
.	.	.	.	4c\	.	.	.
=108	=108	=108	=108	=108	=108	=108	=108
0r	.	0r	.	1d	.	2a/]	.
.	.	.	.	.	.	4b\	.
.	.	.	.	.	.	4cc\	.
.	.	.	.	1f	.	2dd\	ve-
.	.	.	.	.	.	[2cc\	.
=109	=109	=109	=109	=109	=109	=109	=109
0r	.	0r	.	1e	.	2cc\]	.
.	.	.	.	.	.	4b\	.
.	.	.	.	.	.	4cc\	.
.	.	.	.	[1d	.	2dd\	.
.	.	.	.	.	.	[2ff\	.
=110	=110	=110	=110	=110	=110	=110	=110
0r	.	0r	.	2d\]	.	2ff\]	.
.	.	.	.	4c\	.	4ee\	.
.	.	.	.	4B\	.	4dd\	.
.	.	.	.	2c\	.	2ee\	.
.	.	.	.	2d\	.	[2dd\	.
!!LO:LB:g=fi
=111	=111	=111	=111	=111	=111	=111	=111
0r	.	0r	.	1e	.	2dd\]	.
.	.	.	.	.	.	1cc	.
.	.	.	.	1A	-nit,	.	.
.	.	.	.	.	.	4b\	.
.	.	.	.	.	.	4a/	.
=112	=112	=112	=112	=112	=112	=112	=112
0r	.	0r	.	1r	.	2b\	.
.	.	.	.	.	.	1a	.
.	.	.	.	1e	qui	.	.
.	.	.	.	.	.	2g/	.
=113	=113	=113	=113	=113	=113	=113	=113
0r	.	0r	.	2f\	ve-	2a/	.
.	.	.	.	1e	.	1g	.
.	.	.	.	4d\	.	4f/	.
.	.	.	.	4c\	.	4e/	.
=114	=114	=114	=114	=114	=114	=114	=114
0r	.	0r	.	2d\	.	2f/	.
.	.	.	.	2e\	.	1e	.
.	.	.	.	1f	.	.	.
.	.	.	.	.	.	2d/	.
=115	=115	=115	=115	=115	=115	=115	=115
0r	.	0r	.	2.e\	.	2e/	-nit
.	.	.	.	.	.	1g	qui
.	.	.	.	4d\	.	.	.
.	.	.	.	4c\	.	.	.
.	.	.	.	4B\	.	.	.
.	.	.	.	[2A/	.	4f/	.
.	.	.	.	.	.	4e/	.
=116	=116	=116	=116	=116	=116	=116	=116
0r	.	0r	.	2A/]	.	2f/	ve-
.	.	.	.	2G/	.	1e	.
.	.	.	.	1F	.	.	.
.	.	.	.	.	.	2d/	.
=117	=117	=117	=117	=117	=117	=117	=117
0r	.	0r	.	0E/l	-nit	0e/l	-nit
!!LO:LB:g=z
=118||	=118||	=118||	=118||	=118||	=118||	=118||	=118||
*>F	*>F	*>F	*>F	*>F	*>F	*>F	*>F
*clefF4	*	*clefGv2	*	*clefGv2	*	*clefG2	*
*k[]	*	*k[]	*	*k[]	*	*k[]	*
*M2/1	*	*M2/1	*	*M2/1	*	*M2/1	*
*met(C|)	*	*met(C|)	*	*met(C|)	*	*met(C|)	*
!!!voices: 2
!!!OMD: In nomine
!!section:In_nomine
0D	In	0r	.	0r	.	0r	.
=119	=119	=119	=119	=119	=119	=119	=119
1E	no-	0r	.	0r	.	0r	.
1G	.	.	.	.	.	.	.
=120	=120	=120	=120	=120	=120	=120	=120
2F\	.	0A	In	0r	.	0r	.
2D\	.	.	.	.	.	.	.
1F	.	.	.	.	.	.	.
=121	=121	=121	=121	=121	=121	=121	=121
1E	.	1B	no-	0r	.	0r	.
1D	-mi-	1d	.	.	.	.	.
=122	=122	=122	=122	=122	=122	=122	=122
0A	-ne,	2c\	.	0r	.	0r	.
.	.	2A/	.	.	.	.	.
.	.	1c	.	.	.	.	.
=123	=123	=123	=123	=123	=123	=123	=123
2G\	Do-	1B	.	0r	.	0r	.
2E\	.	.	.	.	.	.	.
2.F\	.	1A	-mi-	.	.	.	.
4E\	-mi-	.	.	.	.	.	.
!!LO:LB
=124	=124	=124	=124	=124	=124	=124	=124
1C	-ni.	0e	-ne,	0r	.	0r	.
[1G	in	.	.	.	.	.	.
=125	=125	=125	=125	=125	=125	=125	=125
1G]	.	2d\	Do-	0r	.	0r	.
.	.	2B\	.	.	.	.	.
1A	no-	2.c\	.	.	.	.	.
.	.	4B\	-mi-	.	.	.	.
=126	=126	=126	=126	=126	=126	=126	=126
1B	-mi-	0G	-ni.	0r	.	0r	.
[1E	-ne	.	.	.	.	.	.
=127	=127	=127	=127	=127	=127	=127	=127
1E]	.	1c	in	0r	.	0r	.
1B	in	1d	.	.	.	.	.
=128	=128	=128	=128	=128	=128	=128	=128
1c	no-	1e	.	0r	.	0r	.
1d	.	[1f	no-	.	.	.	.
=129	=129	=129	=129	=129	=129	=129	=129
1D	-mi-	2f\]	.	0r	.	0r	.
.	.	4e\	.	.	.	.	.
.	.	4d\	.	.	.	.	.
[1A	-ne	2f\	.	.	.	.	.
.	.	2e\	.	.	.	.	.
!!LO:LB:g=fi
=130	=130	=130	=130	=130	=130	=130	=130
1A]	.	1c	.	0r	.	0r	.
1B	in	1d	.	.	.	.	.
=131	=131	=131	=131	=131	=131	=131	=131
0c	no-	1e	-mi-	0r	.	0r	.
.	.	1A	-ne	.	.	.	.
=132	=132	=132	=132	=132	=132	=132	=132
1C	-mi-	2r	.	0r	.	0r	.
.	.	2e\	Do-	.	.	.	.
1G	.	2d\	.	.	.	.	.
.	.	[2e\	.	.	.	.	.
=133	=133	=133	=133	=133	=133	=133	=133
1E	.	2e\]	.	0r	.	0r	.
.	.	2g\	.	.	.	.	.
1A	-ne	2f\	.	.	.	.	.
.	.	[2e\	.	.	.	.	.
=134	=134	=134	=134	=134	=134	=134	=134
2r	.	4e\]	.	0r	.	0r	.
.	.	4d\	.	.	.	.	.
2A\	Do-	4c\	.	.	.	.	.
.	.	8B/L	.	.	.	.	.
.	.	8A/J	.	.	.	.	.
2G\	.	2B\	-mi-	.	.	.	.
[2A\	.	2A/	-ni.	.	.	.	.
=135	=135	=135	=135	=135	=135	=135	=135
2A\]	.	1c	Do-	0r	.	0r	.
2c\	.	.	.	.	.	.	.
2B\	.	2d\	.	.	.	.	.
[2A\	.	2f\	.	.	.	.	.
!!LO:LB:g=fi
=136	=136	=136	=136	=136	=136	=136	=136
4A\]	.	2e\	.	0r	.	0r	.
4G\	.	.	.	.	.	.	.
4F\	.	2A/	-mi-	.	.	.	.
8E\L	.	.	.	.	.	.	.
8D\J	.	.	.	.	.	.	.
2E\	-mi-	1c	-ni.	.	.	.	.
2AA/	-ni.	.	.	.	.	.	.
=137	=137	=137	=137	=137	=137	=137	=137
2r	.	2d\	Do-	0r	.	0r	.
2A\	Do-	2f\	.	.	.	.	.
2G\	.	2.e\	.	.	.	.	.
[2A\	.	.	.	.	.	.	.
.	.	4d\	.	.	.	.	.
=138	=138	=138	=138	=138	=138	=138	=138
2A\]	.	2f\	.	0r	.	0r	.
2c\	.	2e\	.	.	.	.	.
2B\	.	2d\	.	.	.	.	.
[2A\	.	[2f\	.	.	.	.	.
=139	=139	=139	=139	=139	=139	=139	=139
4A\]	.	4f\]	.	0r	.	0r	.
4G\	.	4e\	.	.	.	.	.
4F\	.	1d	.	.	.	.	.
8E\L	.	.	.	.	.	.	.
8D\J	.	.	.	.	.	.	.
1E	-mi-	.	.	.	.	.	.
.	.	2c#i\	-mi-	.	.	.	.
=140	=140	=140	=140	=140	=140	=140	=140
0D\l	-ni.	0d\l	-ni.	0r	.	0r	.
!!LO:TX:i:Y=40:rj:t=Osanna ut supra
=||	=||	=||	=||	=||	=||	=||	=||
*-	*-	*-	*-	*-	*-	*-	*-
!!!RDF**kern: l=long note in original notation
!!!RDF**kern: i=editorial accidental
!!!ENC:	Jesse Rodin
!!!END:	2011/01/01/
!!!EED:	Jesse Rodin
!!!EEV: 2012/04/24/
!!attribution-level@Jos: 1 (secure)
!!!ONB:	Translated from MusicXML and edited on 2011/01/03/ by Craig Sapp
!!muse2ps: T^@{OPR}^u^@{ONM}{. }@{OTL}^C^@{COM}\n@{SCT}^i2I100v85,90,85,130Q16
